; generated by Slic3r 1.2.9 on 2015-10-25 at 16:37:35

; external perimeters extrusion width = 0.40mm
; perimeters extrusion width = 0.67mm
; infill extrusion width = 0.67mm
; solid infill extrusion width = 0.67mm
; top infill extrusion width = 0.67mm
; support material extrusion width = 0.40mm

M190 S60 ; set bed temperature
M109 S200 ;
G28; HOME ALL AXES
G1 Z5 F5000; lift z axis 5mm
G28 Z0;
M565 Z-0.80; printer specific z offset 
G29;
;M206 X0.00 Y0.00 Z0.40;
G21 ; set units to millimeters
G90 ; use absolute coordinates
M82 ; use absolute distances for extrusion
G92 E0
G1 E-1.00000 F1800.00000
G92 E0
G1 Z0.350 F6000.000
G1 X79.377 Y105.386 F6000.000
G1 E1.00000 F1800.00000
M204 S500
G1 X81.322 Y103.921 E1.22147 F630.000
G1 X83.775 Y103.058 E1.45788
G1 X85.337 Y102.913 E1.60058
G1 X139.858 Y102.913 E6.55814
G1 X141.271 Y103.031 E6.68706
G1 X146.298 Y103.879 E7.15064 F630.000
G1 X148.766 Y104.698 E7.38705
G1 X150.870 Y106.225 E7.62346
G1 X152.415 Y108.316 E7.85987
G1 X153.365 Y111.676 E8.17737
G1 X154.023 Y121.240 E9.04907
G1 X154.044 Y121.824 E9.10220
G1 X154.044 Y132.702 E10.09133
G1 X153.747 Y134.928 E10.29551
G1 X151.728 Y142.368 E10.99649
G1 X151.371 Y143.412 E11.09680
G1 X149.504 Y146.229 E11.40410
G1 X149.228 Y146.504 E11.43956
G1 X148.513 Y147.144 E11.52683
G1 X145.884 Y149.237 E11.83241
G1 X143.626 Y150.526 E12.06882
G1 X140.589 Y151.087 E12.34960
G1 X86.068 Y151.087 E17.30715
G1 X83.499 Y150.689 E17.54357
G1 X81.170 Y149.534 E17.77998
G1 X80.011 Y148.550 E17.91824
G1 X76.398 Y144.879 E18.38652
G1 X74.879 Y142.769 E18.62293
G1 X74.069 Y140.299 E18.85934
G1 X73.956 Y138.917 E18.98539
G1 X73.956 Y117.161 E20.96365
G1 X74.354 Y114.592 E21.20006
G1 X74.857 Y113.353 E21.32167
G1 X77.739 Y107.604 E21.90638
G1 X79.245 Y105.485 E22.14279
G1 X79.329 Y105.423 E22.15227
G1 X79.759 Y105.854 F6000.000
G1 X81.785 Y104.385 E22.37978 F630.000
G1 X85.337 Y103.538 E22.71186
G1 X139.858 Y103.538 E27.66942
G1 X141.167 Y103.647 E27.78886
G1 X146.194 Y104.495 E28.25245 F630.000
G1 X148.564 Y105.297 E28.47995
G1 X150.563 Y106.803 E28.70745
G1 X151.988 Y108.859 E28.93495
G1 X152.741 Y111.719 E29.20387
G1 X153.400 Y121.283 E30.07558
G1 X153.419 Y121.824 E30.12480
G1 X153.419 Y132.702 E31.11393
G1 X153.144 Y134.764 E31.30310
G1 X151.125 Y142.204 E32.00408
G1 X150.792 Y143.177 E32.09757
G1 X149.062 Y145.787 E32.38227
G1 X148.787 Y146.063 E32.41774
G1 X148.123 Y146.655 E32.49859
G1 X145.494 Y148.748 E32.80417
G1 X143.314 Y149.976 E33.03167
G1 X140.589 Y150.462 E33.28336
G1 X86.068 Y150.462 E38.24092
G1 X83.598 Y150.065 E38.46842
G1 X80.456 Y148.111 E38.80484
G1 X76.844 Y144.441 E39.27311
G1 X75.394 Y142.402 E39.50062
G1 X74.581 Y138.917 E39.82598
G1 X74.581 Y117.161 E41.80424
G1 X75.416 Y113.633 E42.13394
G1 X78.297 Y107.884 E42.71864
G1 X79.724 Y105.903 E42.94069
G1 X80.271 Y106.227 F6000.000
G1 X82.242 Y104.856 E43.15904 F630.000
G1 X85.337 Y104.163 E43.44744
G1 X139.858 Y104.163 E48.40500
G1 X141.063 Y104.264 E48.51496
G1 X146.091 Y105.111 E48.97854 F630.000
G1 X148.358 Y105.896 E49.19677
G1 X150.246 Y107.379 E49.41500
G1 X151.546 Y109.396 E49.63323
G1 X152.118 Y111.762 E49.85455
G1 X152.777 Y121.326 E50.72625
G1 X152.794 Y121.824 E50.77156
G1 X152.794 Y132.702 E51.76070
G1 X152.541 Y134.600 E51.93485
G1 X150.522 Y142.040 E52.63584
G1 X150.213 Y142.942 E52.72250
G1 X148.621 Y145.345 E52.98461
G1 X148.345 Y145.621 E53.02008
G1 X147.734 Y146.166 E53.09451
G1 X145.105 Y148.259 E53.40009
G1 X143.006 Y149.423 E53.61832
G1 X140.589 Y149.837 E53.84127
G1 X86.068 Y149.837 E58.79883
G1 X83.702 Y149.440 E59.01706
G1 X80.902 Y147.673 E59.31812
G1 X77.289 Y144.003 E59.78640
G1 X75.912 Y142.037 E60.00463
G1 X75.206 Y138.917 E60.29550
G1 X75.206 Y117.161 E62.27376
G1 X75.975 Y113.913 E62.57730
G1 X78.856 Y108.164 E63.16200
G1 X80.235 Y106.276 E63.37464
G1 X80.780 Y106.605 F6000.000
G1 X82.695 Y105.338 E63.58345 F630.000
G1 X85.337 Y104.788 E63.82889
G1 X139.858 Y104.788 E68.78645
G1 X140.959 Y104.880 E68.88694
G1 X145.987 Y105.727 E69.35052 F630.000
G1 X148.148 Y106.494 E69.55906
G1 X149.918 Y107.952 E69.76760
G1 X151.086 Y109.926 E69.97615
G1 X151.495 Y111.805 E70.15096
G1 X152.153 Y121.369 E71.02266
G1 X152.169 Y121.824 E71.06407
G1 X152.169 Y132.702 E72.05320
G1 X151.938 Y134.437 E72.21235
G1 X149.919 Y141.877 E72.91333
G1 X149.634 Y142.707 E72.99317
G1 X148.179 Y144.903 E73.23269
G1 X147.903 Y145.179 E73.26815
G1 X147.345 Y145.677 E73.33617
G1 X144.716 Y147.770 E73.64175
G1 X142.701 Y148.867 E73.85029
G1 X140.589 Y149.212 E74.04490
G1 X86.068 Y149.212 E79.00246
G1 X83.810 Y148.815 E79.21100
G1 X81.347 Y147.235 E79.47709
G1 X77.734 Y143.564 E79.94537
G1 X76.433 Y141.676 E80.15391
G1 X75.831 Y138.917 E80.41067
G1 X75.831 Y117.161 E82.38894
G1 X76.533 Y114.193 E82.66631
G1 X79.415 Y108.444 E83.25101
G1 X80.744 Y106.653 E83.45381
G1 E82.45381 F1800.00000
G92 E0
G1 X82.289 Y108.193 F6000.000
G1 E1.00000 F1800.00000
G1 X82.798 Y107.709 E1.06393 F630.000
G1 X84.331 Y107.036 E1.21611
G1 X85.749 Y106.941 E1.34532
G1 X88.208 Y107.646 E1.57801
G1 X88.427 Y107.631 E1.59789
G1 X89.783 Y107.036 E1.73256
G1 X91.201 Y106.941 E1.86177
G1 X93.661 Y107.646 E2.09446
G1 X93.879 Y107.631 E2.11434
G1 X95.235 Y107.036 E2.24901
G1 X96.653 Y106.941 E2.37823
G1 X99.113 Y107.646 E2.61091
G1 X99.331 Y107.631 E2.63079
G1 X100.687 Y107.036 E2.76547
G1 X102.105 Y106.941 E2.89468
G1 X104.565 Y107.646 E3.12737
G1 X104.783 Y107.631 E3.14724
G1 X106.139 Y107.036 E3.28192
G1 X107.557 Y106.941 E3.41113
G1 X110.017 Y107.646 E3.64382
G1 X110.235 Y107.631 E3.66370
G1 X111.591 Y107.036 E3.79837
G1 X113.009 Y106.941 E3.92758
G1 X115.469 Y107.646 E4.16027
G1 X115.687 Y107.631 E4.18015
G1 X117.043 Y107.036 E4.31482
G1 X118.461 Y106.941 E4.44403
G1 X120.921 Y107.646 E4.67672
G1 X121.139 Y107.631 E4.69660
G1 X122.495 Y107.036 E4.83127
G1 X123.913 Y106.941 E4.96048
G1 X126.373 Y107.646 E5.19317
G1 X126.591 Y107.631 E5.21305
G1 X127.947 Y107.036 E5.34772
G1 X129.365 Y106.941 E5.47693
G1 X131.825 Y107.646 E5.70962
G1 X132.043 Y107.631 E5.72950
G1 X133.400 Y107.036 E5.86418
G1 X134.817 Y106.941 E5.99339
G1 X137.317 Y107.658 E6.22985
G1 X137.553 Y107.635 E6.25137
G1 X138.546 Y107.131 E6.35264
G1 X139.835 Y106.935 E6.47120
G1 X146.746 Y108.100 E7.10846
G1 X148.302 Y109.244 E7.28418 F630.000
G1 X149.337 Y111.283 E7.49201
G1 X149.342 Y113.215 E7.66773
G1 X148.803 Y114.290 E7.77702
G1 X148.774 Y114.487 E7.79515
G1 X149.957 Y121.458 E8.43811
G1 X149.963 Y122.102 E8.49665
G1 X149.852 Y122.849 E8.56535
G1 X149.657 Y123.463 E8.62389
G1 X148.884 Y125.005 E8.78078
G1 X148.854 Y125.197 E8.79846
G1 X149.961 Y132.396 E9.46068
G1 X149.959 Y133.024 E9.51778
G1 X149.845 Y133.751 E9.58477
G1 X149.653 Y134.349 E9.64186
G1 X147.649 Y138.349 E10.04862
G1 X147.615 Y138.490 E10.06188
G1 X147.615 Y140.200 E10.21729
G1 X147.576 Y140.597 E10.25357
G1 X147.472 Y141.122 E10.30232
G1 X147.362 Y141.490 E10.33721
G1 X147.105 Y142.122 E10.39925
G1 X146.655 Y142.802 E10.47342
G1 X145.802 Y143.655 E10.58304
G1 X145.122 Y144.105 E10.65720
G1 X144.785 Y144.242 E10.69031
G1 X144.618 Y144.397 E10.71103
G1 X144.159 Y145.312 E10.80417
G1 X143.128 Y146.291 E10.93338
G1 X141.596 Y146.964 E11.08556
G1 X140.178 Y147.059 E11.21477
G1 X137.718 Y146.354 E11.44746
G1 X137.500 Y146.369 E11.46734
G1 X136.144 Y146.964 E11.60201
G1 X134.726 Y147.059 E11.73122
G1 X132.266 Y146.354 E11.96391
G1 X132.048 Y146.369 E11.98379
G1 X130.692 Y146.964 E12.11847
G1 X129.274 Y147.059 E12.24768
G1 X126.814 Y146.354 E12.48037
G1 X126.596 Y146.369 E12.50024
G1 X125.240 Y146.964 E12.63492
G1 X123.822 Y147.059 E12.76413
G1 X121.362 Y146.354 E12.99682
G1 X121.144 Y146.369 E13.01670
G1 X119.787 Y146.964 E13.15137
G1 X118.370 Y147.059 E13.28058
G1 X115.910 Y146.354 E13.51327
G1 X115.692 Y146.369 E13.53315
G1 X114.335 Y146.964 E13.66782
G1 X112.918 Y147.059 E13.79703
G1 X110.458 Y146.354 E14.02972
G1 X110.240 Y146.369 E14.04960
G1 X108.883 Y146.964 E14.18427
G1 X107.466 Y147.059 E14.31348
G1 X105.006 Y146.354 E14.54617
G1 X104.787 Y146.369 E14.56605
G1 X103.431 Y146.964 E14.70072
G1 X102.013 Y147.059 E14.82993
G1 X99.554 Y146.354 E15.06262
G1 X99.335 Y146.369 E15.08250
G1 X97.979 Y146.964 E15.21718
G1 X96.561 Y147.059 E15.34639
G1 X94.047 Y146.338 E15.58426
G1 X93.785 Y146.374 E15.60825
G1 X93.273 Y146.691 E15.66302
G1 X92.185 Y146.999 E15.76582
G1 X84.817 Y146.999 E16.43581
G1 X82.972 Y145.970 E16.62791
G1 X81.657 Y143.840 E16.85551
G1 X81.630 Y143.239 E16.91020
G1 X81.446 Y142.954 E16.94110
G1 X78.819 Y141.638 E17.20825
G1 X77.758 Y138.444 E17.51422
G1 X79.116 Y135.736 E17.78974
G1 X79.146 Y135.544 E17.80742
G1 X78.039 Y128.345 E18.46964
G1 X78.041 Y127.717 E18.52674
G1 X78.155 Y126.990 E18.59373
G1 X78.347 Y126.392 E18.65082
G1 X79.116 Y124.858 E18.80686
G1 X79.146 Y124.666 E18.82453
G1 X78.039 Y117.467 E19.48676
G1 X78.041 Y116.839 E19.54385
G1 X78.155 Y116.112 E19.61085
G1 X78.347 Y115.514 E19.66794
G1 X81.768 Y108.688 E20.36223
G1 X82.245 Y108.234 E20.42206
G1 X82.719 Y108.646 F6000.000
G1 X83.149 Y108.237 E20.47605 F630.000
G1 X84.482 Y107.652 E20.60835
G1 X85.681 Y107.572 E20.71768
G1 X88.253 Y108.309 E20.96094
G1 X88.471 Y108.294 E20.98082
G1 X89.934 Y107.652 E21.12606
G1 X91.134 Y107.572 E21.23539
G1 X93.705 Y108.309 E21.47864
G1 X93.923 Y108.294 E21.49852
G1 X95.386 Y107.652 E21.64376
G1 X96.586 Y107.572 E21.75309
G1 X99.157 Y108.309 E21.99635
G1 X99.375 Y108.294 E22.01623
G1 X100.838 Y107.652 E22.16147
G1 X102.038 Y107.572 E22.27080
G1 X104.609 Y108.309 E22.51406
G1 X104.827 Y108.294 E22.53394
G1 X106.290 Y107.652 E22.67918
G1 X107.490 Y107.572 E22.78851
G1 X110.061 Y108.309 E23.03176
G1 X110.280 Y108.294 E23.05164
G1 X111.742 Y107.652 E23.19688
G1 X112.942 Y107.572 E23.30621
G1 X115.513 Y108.309 E23.54947
G1 X115.732 Y108.294 E23.56935
G1 X117.194 Y107.652 E23.71459
G1 X118.394 Y107.572 E23.82392
G1 X120.966 Y108.309 E24.06718
G1 X121.184 Y108.294 E24.08705
G1 X122.646 Y107.652 E24.23229
G1 X123.846 Y107.572 E24.34163
G1 X126.418 Y108.309 E24.58488
G1 X126.636 Y108.294 E24.60476
G1 X128.098 Y107.652 E24.75000
G1 X129.298 Y107.572 E24.85933
G1 X131.870 Y108.309 E25.10259
G1 X132.088 Y108.294 E25.12247
G1 X133.551 Y107.652 E25.26771
G1 X134.750 Y107.572 E25.37704
G1 X137.381 Y108.326 E25.62589
G1 X137.617 Y108.303 E25.64741
G1 X138.739 Y107.734 E25.76188
G1 X139.830 Y107.567 E25.86220
G1 X146.495 Y108.691 E26.47683 F630.000
G1 X147.813 Y109.660 E26.62552
G1 X148.712 Y111.433 E26.80631
G1 X148.716 Y113.068 E26.95500
G1 X148.153 Y114.193 E27.06937
G1 X148.123 Y114.390 E27.08750
G1 X149.332 Y121.514 E27.74455
G1 X149.338 Y122.059 E27.79409
G1 X149.241 Y122.708 E27.85378
G1 X149.077 Y123.227 E27.90332
G1 X148.236 Y124.904 E28.07382
G1 X148.206 Y125.096 E28.09149
G1 X149.336 Y132.443 E28.76743
G1 X149.335 Y132.974 E28.81574
G1 X149.235 Y133.607 E28.87395
G1 X149.073 Y134.113 E28.92226
G1 X147.024 Y138.201 E29.33807
G1 X146.990 Y138.343 E29.35133
G1 X146.990 Y140.169 E29.51739
G1 X146.957 Y140.505 E29.54809
G1 X146.864 Y140.972 E29.59137
G1 X146.771 Y141.283 E29.62089
G1 X146.550 Y141.829 E29.67454
G1 X146.168 Y142.405 E29.73730
G1 X145.405 Y143.168 E29.83551
G1 X144.829 Y143.550 E29.89826
G1 X144.332 Y143.751 E29.94709
G1 X144.164 Y143.906 E29.96780
G1 X143.649 Y144.935 E30.07243
G1 X142.777 Y145.763 E30.18176
G1 X141.445 Y146.348 E30.31406
G1 X140.245 Y146.428 E30.42340
G1 X137.674 Y145.691 E30.66665
G1 X137.455 Y145.706 E30.68653
G1 X135.993 Y146.348 E30.83177
G1 X134.793 Y146.428 E30.94110
G1 X132.221 Y145.691 E31.18436
G1 X132.003 Y145.706 E31.20424
G1 X130.541 Y146.348 E31.34948
G1 X129.341 Y146.428 E31.45881
G1 X126.769 Y145.691 E31.70207
G1 X126.551 Y145.706 E31.72194
G1 X125.089 Y146.348 E31.86718
G1 X123.889 Y146.428 E31.97652
G1 X121.317 Y145.691 E32.21977
G1 X121.099 Y145.706 E32.23965
G1 X119.636 Y146.348 E32.38489
G1 X118.437 Y146.428 E32.49422
G1 X115.865 Y145.691 E32.73748
G1 X115.647 Y145.706 E32.75736
G1 X114.184 Y146.348 E32.90260
G1 X112.985 Y146.428 E33.01193
G1 X110.413 Y145.691 E33.25518
G1 X110.195 Y145.706 E33.27506
G1 X108.732 Y146.348 E33.42030
G1 X107.533 Y146.428 E33.52963
G1 X104.961 Y145.691 E33.77289
G1 X104.743 Y145.706 E33.79277
G1 X103.280 Y146.348 E33.93801
G1 X102.081 Y146.428 E34.04734
G1 X99.509 Y145.691 E34.29060
G1 X99.291 Y145.706 E34.31048
G1 X97.828 Y146.348 E34.45572
G1 X96.628 Y146.428 E34.56505
G1 X93.953 Y145.661 E34.81810
G1 X93.692 Y145.697 E34.84209
G1 X93.018 Y146.113 E34.91406
G1 X92.098 Y146.374 E35.00104
G1 X84.979 Y146.374 E35.64835
G1 X83.418 Y145.504 E35.81089
G1 X82.274 Y143.650 E36.00895
G1 X82.242 Y142.936 E36.07398
G1 X82.148 Y142.721 E36.09528
G1 X81.874 Y142.470 E36.12908
G1 X79.330 Y141.195 E36.38781
G1 X78.433 Y138.493 E36.64671
G1 X79.764 Y135.838 E36.91680
G1 X79.794 Y135.646 E36.93448
G1 X78.664 Y128.298 E37.61042
G1 X78.665 Y127.767 E37.65873
G1 X78.765 Y127.134 E37.71694
G1 X78.927 Y126.629 E37.76525
G1 X79.764 Y124.960 E37.93501
G1 X79.794 Y124.768 E37.95268
G1 X78.664 Y117.420 E38.62862
G1 X78.665 Y116.889 E38.67693
G1 X78.765 Y116.256 E38.73514
G1 X78.927 Y115.751 E38.78345
G1 X82.278 Y109.065 E39.46342
G1 X82.675 Y108.687 E39.51330
G1 X83.149 Y109.099 F6000.000
G1 X83.501 Y108.765 E39.55735 F630.000
G1 X84.633 Y108.269 E39.66978
G1 X85.614 Y108.203 E39.75923
G1 X88.450 Y109.015 E40.02747
G1 X88.773 Y108.936 E40.05767
G1 X88.953 Y108.765 E40.08025
G1 X90.085 Y108.269 E40.19267
G1 X91.066 Y108.203 E40.28213
G1 X93.902 Y109.015 E40.55037
G1 X94.225 Y108.936 E40.58057
G1 X94.405 Y108.765 E40.60314
G1 X95.537 Y108.269 E40.71557
G1 X96.518 Y108.203 E40.80502
G1 X99.354 Y109.015 E41.07326
G1 X99.677 Y108.936 E41.10346
G1 X99.857 Y108.765 E41.12604
G1 X100.989 Y108.269 E41.23846
G1 X101.971 Y108.203 E41.32792
G1 X104.806 Y109.015 E41.59616
G1 X105.129 Y108.936 E41.62636
G1 X105.309 Y108.765 E41.64894
G1 X106.441 Y108.269 E41.76136
G1 X107.423 Y108.203 E41.85081
G1 X110.258 Y109.015 E42.11906
G1 X110.581 Y108.936 E42.14926
G1 X110.761 Y108.765 E42.17183
G1 X111.893 Y108.269 E42.28426
G1 X112.875 Y108.203 E42.37371
G1 X115.710 Y109.015 E42.64195
G1 X116.033 Y108.936 E42.67215
G1 X116.213 Y108.765 E42.69473
G1 X117.345 Y108.269 E42.80715
G1 X118.327 Y108.203 E42.89661
G1 X121.163 Y109.015 E43.16485
G1 X121.485 Y108.936 E43.19505
G1 X121.665 Y108.765 E43.21763
G1 X122.797 Y108.269 E43.33005
G1 X123.779 Y108.203 E43.41950
G1 X126.615 Y109.015 E43.68774
G1 X126.937 Y108.936 E43.71795
G1 X127.117 Y108.765 E43.74052
G1 X128.249 Y108.269 E43.85295
G1 X129.231 Y108.203 E43.94240
G1 X132.067 Y109.015 E44.21064
G1 X132.389 Y108.936 E44.24084
G1 X132.569 Y108.765 E44.26342
G1 X133.702 Y108.269 E44.37584
G1 X134.683 Y108.203 E44.46530
G1 X137.513 Y109.014 E44.73299
G1 X137.844 Y108.928 E44.76404
G1 X137.922 Y108.849 E44.77414
G1 X138.933 Y108.336 E44.87719
G1 X139.825 Y108.200 E44.95927
G1 X146.245 Y109.283 E45.55126
G1 X147.323 Y110.075 E45.67291 F630.000
G1 X148.088 Y111.583 E45.82667
G1 X148.091 Y112.921 E45.94832
G1 X147.502 Y114.095 E46.06778
G1 X147.473 Y114.293 E46.08591
G1 X148.708 Y121.570 E46.75706
G1 X148.713 Y122.015 E46.79759
G1 X148.630 Y122.567 E46.84828
G1 X148.496 Y122.992 E46.88881
G1 X147.589 Y124.802 E47.07291
G1 X147.558 Y124.994 E47.09059
G1 X148.711 Y132.490 E47.78025
G1 X148.710 Y132.925 E47.81977
G1 X148.625 Y133.462 E47.86920
G1 X148.493 Y133.876 E47.90873
G1 X146.513 Y137.825 E48.31042
G1 X146.365 Y138.030 E48.33338
G1 X146.365 Y140.138 E48.52508
G1 X146.338 Y140.413 E48.55021
G1 X146.257 Y140.821 E48.58800
G1 X146.181 Y141.075 E48.61216
G1 X145.994 Y141.537 E48.65742
G1 X145.682 Y142.007 E48.70877
G1 X145.007 Y142.682 E48.79557
G1 X144.536 Y142.994 E48.84691
G1 X143.920 Y143.228 E48.90685
G1 X143.722 Y143.394 E48.93034
G1 X143.139 Y144.557 E49.04866
G1 X142.426 Y145.235 E49.13811
G1 X141.294 Y145.731 E49.25053
G1 X140.312 Y145.797 E49.33999
G1 X137.476 Y144.985 E49.60823
G1 X137.154 Y145.064 E49.63843
G1 X136.974 Y145.235 E49.66100
G1 X135.842 Y145.731 E49.77343
G1 X134.860 Y145.797 E49.86288
G1 X132.024 Y144.985 E50.13112
G1 X131.702 Y145.064 E50.16132
G1 X131.522 Y145.235 E50.18390
G1 X130.390 Y145.731 E50.29633
G1 X129.408 Y145.797 E50.38578
